X: 329
T:Lady (Of) The Lake,The. JaW.328
M:6/8
L:1/8
Q:14=180
S:James Winder Ms, Lancashire, 1835-41
R:Jig
O:England
A:Wyresdale,Lancashire
H:1/8
Z:vmp.Chris Partington, Aug 2004
K:G
c||BcA G2D|E2D G2D|BcA G2D|E2A A2c|!
BcA G2D|E2D G2D|E2D G2D|D2G G2z||!
B2B BcA|B2c d2f|g2f e2d|c2B A2G|!
B2B BcA|B2c d2f|g2e a2g|f2e d2c|]
